X:1
T:Title
%%score { ( 1 3 ) | 2 }
L:1/8
M:12/8
K:Eb
V:1 treble nm="Grand Piano"
V:3 treble 
V:2 bass 
V:1
 z6 z2[Q:1/4=110] B c2 G | B6- B2 z z3 | A6- A2 z z3 | d6- d2 z z3 | B6- B2 z z3 | B6- B2 z z3 | %6
 A6- A2 z z3 | d6- d2 z z3 |[M:9/8] E8- E | [AB] [FB]2 [EB] [DB]2- [DB]3 | D C2 B, E2- E3 | %11
 [GB] c2 d A2- A3 |[M:5/8] c d2 c[GB]- |[M:2/4] [GB]4 | [EB] [Ec]2 [Ad] | %15
[M:9/8] [Ge]3- [Ge]2 G F2 E | A3- A2 [Ec] [Ed]2 [Ec] | [EB]3- [EB]2 B, C2 D | %18
[M:5/8] [G,B,E]-[G,B,E]- [G,B,E]3 |] %19
V:2
 z12 | z2 [E,B,] [E,B,]2 [E,B,] .[E,B,]3 z3 | z2 [B,,B,] [B,,F,]2 [B,,F,] .[B,,F,]3 z3 | %3
 z2 [B,,F,] [B,,F,]2 [B,,F,] .[B,,F,]3 z3 | z2 [E,G,] [E,G,]2 [E,G,] .[E,G,]3 z3 | %5
 z2 [E,B,] [E,B,]2 [E,B,] .[E,B,]3 z3 | z2 [B,,B,] [B,,F,]2 [B,,F,] .[B,,F,]3 z3 | %7
 z2 [B,,F,] [B,,F,]2 [B,,F,] .[B,,F,]3 z3 |[M:9/8] z2 [E,G,] [E,F,]2 [E,A,] [E,G,]3 | %9
 [B,,D,] [B,,F,]2 [B,,G,] [B,,A,]2- [B,,A,]3 | [B,,A,B,] [C,A,B,]2 [D,A,] [E,G,B,]2- [E,G,B,]3 | %11
 [E,E][K:treble] [B,DA]2 [B,FA] [B,DF]2- [B,DF]3 |[M:5/8] [B,DA] [B,FA]2 [B,DA][K:bass][E,E]- | %13
[M:2/4] [E,E]4 | [E,G,] [E,A,]2 [E,B,] |[M:9/8] [E,B,]3- [E,B,]2 [E,B,E] [F,B,D]2 [G,_D] | %16
 [A,CE]3- [A,CE]2 [A,,A,] [=A,,_G,]2 [A,,G,] | [B,,G,]3- [B,,G,]2 [B,,F,A,] [B,,F,A,]2 [B,,A,B,] | %18
[M:5/8] [E,,E,]-[E,,E,]- [E,,E,]3 |] %19
V:3
 x12 | z2 G G2 G G2 B c2 G | z2 D D2 D D2 c d2 c | z2 A A2 A A2 A c2 B | z2 E E2 E E2 B c2 G | %5
 z2 G G2 G G2 B c2 G | z2 D D2 D D2 c d2 c | z2 A A2 A A2 c B2 D |[M:9/8] z2 B, A,2 C B,3 | x9 | %10
 x9 | x9 |[M:5/8] x5 |[M:2/4] x4 | x4 |[M:9/8] x9 | x9 | x9 |[M:5/8] x5 |] %19

